assets/icon-trophy.svg

<?xml version="1.0" encoding="utf-8"?>
<!-- Generator: Adobe Illustrator 27.2.0, SVG Export Plug-In . SVG Version: 6.00 Build 0)  -->
<svg version="1.1" id="Layer_1" xmlns="http://www.w3.org/2000/svg" xmlns:xlink="http://www.w3.org/1999/xlink" x="0px" y="0px"
	 viewBox="0 0 104 128.5" style="enable-background:new 0 0 104 128.5;" xml:space="preserve">
<style type="text/css">
	.st0{fill:none;stroke:#231F20;stroke-width:4;stroke-miterlimit:10;}
	.st1{fill:none;stroke:#231F20;stroke-width:4;stroke-linejoin:round;stroke-miterlimit:10;}
	.st2{fill:none;stroke:#231F20;stroke-width:4;stroke-linecap:round;stroke-linejoin:round;stroke-miterlimit:10;}
</style>
<path class="st0" d="M77.8,106.8H26c-1.6,0-3,1.3-3,3v13.1c0,1.6,1.3,3,3,3h51.8c1.6,0,3-1.3,3-3v-13.1
	C80.7,108.1,79.4,106.8,77.8,106.8z"/>
<path class="st0" d="M67.4,94.7H36.3c-1.6,0-3,1.3-3,3v6.2c0,1.6,1.3,3,3,3h31.2c1.6,0,3-1.3,3-3v-6.2C70.4,96,69.1,94.7,67.4,94.7z
	"/>
<path class="st1" d="M46.4,94.7c0-6.4,0-14,0-25.7c-37-10.3-32.4-67-30.2-67s35.8,0,35.8,0"/>
<path class="st1" d="M57.4,94.7c0-6.4,0-14,0-25.7c37-10.3,32.4-67,30.2-67c-2.2,0-35.8,0-35.8,0"/>
<path class="st1" d="M14.8,13.1c0,0-9.2,0-12.1,0c0,28,24.8,41.7,18.8,33.5S14.8,13.1,14.8,13.1z"/>
<path class="st2" d="M43.9,23.5c0,0,6.6-1,10.2-7.2"/>
<line class="st2" x1="54.1" y1="47.3" x2="54.1" y2="16.4"/>
<line class="st2" x1="43.9" y1="48.5" x2="63.7" y2="48.5"/>
<path class="st1" d="M89.3,13.1c0,0,9.2,0,12.1,0c0,28-24.8,41.7-18.8,33.5C88.6,38.5,89.3,13.1,89.3,13.1z"/>
</svg>

<svg xmlns="http://www.w3.org/2000/svg" xml:space="preserve" style="enable-background:new 0 0 104 128.5" viewBox="0 0 104 128.5"><style>.icon-trophy--st0,.icon-trophy--st1,.icon-trophy--st2{fill:none;stroke:#231f20;stroke-width:4;stroke-miterlimit:10}.icon-trophy--st1,.icon-trophy--st2{stroke-linejoin:round}.icon-trophy--st2{stroke-linecap:round}</style><path d="M77.8 106.8H26c-1.6 0-3 1.3-3 3v13.1c0 1.6 1.3 3 3 3h51.8c1.6 0 3-1.3 3-3v-13.1c-.1-1.7-1.4-3-3-3z" class="icon-trophy--st0"/><path d="M67.4 94.7H36.3c-1.6 0-3 1.3-3 3v6.2c0 1.6 1.3 3 3 3h31.2c1.6 0 3-1.3 3-3v-6.2c-.1-1.7-1.4-3-3.1-3z" class="icon-trophy--st0"/><path d="M46.4 94.7V69C9.4 58.7 14 2 16.2 2H52" class="icon-trophy--st1"/><path d="M57.4 94.7V69c37-10.3 32.4-67 30.2-67H51.8M14.8 13.1H2.7c0 28 24.8 41.7 18.8 33.5s-6.7-33.5-6.7-33.5z" class="icon-trophy--st1"/><path d="M43.9 23.5s6.6-1 10.2-7.2M54.1 47.3V16.4M43.9 48.5h19.8" class="icon-trophy--st2"/><path d="M89.3 13.1h12.1c0 28-24.8 41.7-18.8 33.5 6-8.1 6.7-33.5 6.7-33.5z" class="icon-trophy--st1"/></svg>
